Adwaita++-Dark/actions/16/xapp-go-history-next.svg

<svg height="16" width="16" xmlns="http://www.w3.org/2000/svg">
  <path d="m13 13.5a1.5 1.5 0 0 1 -1.5 1.5 1.5 1.5 0 0 1 -1.5-1.5 1.5 1.5 0 0 1 1.5-1.5 1.5 1.5 0 0 1 1.5 1.5zm0-7.5-7 5v-3h-4v-4h4v-3zm-4 7.5a1.5 1.5 0 0 1 -1.5 1.5 1.5 1.5 0 0 1 -1.5-1.5 1.5 1.5 0 0 1 1.5-1.5 1.5 1.5 0 0 1 1.5 1.5zm-4 0a1.5 1.5 0 0 1 -1.5 1.5 1.5 1.5 0 0 1 -1.5-1.5 1.5 1.5 0 0 1 1.5-1.5 1.5 1.5 0 0 1 1.5 1.5z" fill="#e6ddff"/>
</svg>

<svg xmlns="http://www.w3.org/2000/svg" width="16" height="16" version="1.1">
 <path style="fill:#E6DDFF" d="M 13,13.5 A 1.5,1.5 0 0 1 11.5,15 1.5,1.5 0 0 1 10,13.5 1.5,1.5 0 0 1 11.5,12 1.5,1.5 0 0 1 13,13.5 Z M 13,6 6,11 V 8 H 2 V 4 H 6 V 1 Z M 9,13.5 A 1.5,1.5 0 0 1 7.5,15 1.5,1.5 0 0 1 6,13.5 1.5,1.5 0 0 1 7.5,12 1.5,1.5 0 0 1 9,13.5 Z m -4,0 A 1.5,1.5 0 0 1 3.5,15 1.5,1.5 0 0 1 2,13.5 1.5,1.5 0 0 1 3.5,12 1.5,1.5 0 0 1 5,13.5 Z"/>
</svg>
